X: 75
T: Allahümme Salli Alel Mustafa
C: ?
O: Turkey
F: http://compmusic.upf.edu/node/140
N: mahur--salatuselam--sofyan--allahumme--
N: makam= mahur
N: form= salatuselam
N: usul= sofyan = 4/4
M: 4/4
L: 1/16
K: C ^9/8f   
Q: 1/4=126
%%MIDI tuningsystem comma53
g2 g2 g2 g2  | g4 d2 d2  | e3d e2 f2  | \
w:  Al la hüm me   |  sal li  a  |  lel  *  Mus ta  | 
g4 a4  | a2 a2 a2 a2  | a4 d2 d2  | e3d e2 a2  | 
w:  fa    |  Al la hüm me   |  sal li  a  |  lel  *  Mus ta  | 
g2 f2 e2 d2  | c2 d2 d2 e2  | d3c c2 B2  | \
w:  fa    |  Be di  il  ce  |  mâ *  li  ve   | 
B3A A2 G2  | GA Bc d4  | 
w:  bahr_ *  il  ve  |  fâ    | 
c2 d2 d2 e2  | d3c c2 B2  | B3A A2 G2  | \
w:  Be di  il  ce  |  mâ *  li  ve   |  bahr_ *  il  ve  | 
G4 g4  | g2 g2 g2 g2  | g4 d2 d2  | 
w:  fâ   SAZ  |  Ve  sal li  a  |  ley hi  ke  | 
e3d e2 f2  | g4 a4  | a2 a2 a2 a2  | a4 d2 d2  | \
w:  mâ  *  yen ba  |  ğı    |  Ve  sal li  a  |  ley hi  ke  | 
e3d e2 a2  | g2 f2 e2 d2  | 
w:  mâ  *  yen ba  |  ğı    | 
c2 d2 d2 e2  | d3c c2 B2  | B3A A2 G2  | \
w:  Es  sa dık  Mu  |  ham *  med_ a  |  ley *  his se  | 
GA Bc d4  | c2 d2 d2 e2  | 
w:  lam    |  Es  sa dık  Mu  | 
d3c c2 B2  | B3A A2 G2  | G4 z4  | |


